X:1
T:Prince of Wales’ [1] (Strathspey), The
T:Prince of Wales’ [1] (Strathspey), The
T:Robert Mackintosh
C:Robert Mackintosh
L:1/8
M:2/2
K:Bb
V:1 treble 
V:1
 (D/E/) | F>G(F>D) (B,D/E/) (F>D) | F>G(F>D) (G/F/)E/D/ CD/E/ | F>G(F>D) F>G (B>c) | %4
 d>B (e/d/)c/B/ F<BB :| g/ | f>B (e/d/)c/B/ (F>B)D>g | f>B (e/d/)c/B/ g<cc>b | %8
 f>B (e/d/)c/B/ (F>B)D>B | (A/B/c) (F>e) d<BB>g | f>B (e/d/)c/B/ (F>B)D>g | f>B (e/d/)c/B/ g<cc>e | %12
 d<f e<g d<f c<d | (F>G) (B>c) d<BB!D.C.! || %14

